X:053
T:Ragtime Annie
Z:Nigel Gatherer
M:4/4
L:1/8
K:D
FE|DFBF AFBF|DFBF A2 FE|DEFG ABAF|A2 c2 c2 CB|
ABcA B2cB|ABcA BAcB|ABcd egfe|d2 dc d2:|
fg|a2 ab afd2|A6 fg|a2 ab agf2|g6 ef|
gfef gfef|gagf e2 ef|gagf edcB|A6 fg|
a2 ab afdB|A2 AB A2 AA|d4 =c4|B6 A2|B2 b2 b2 ag|
f2 a2 a2 gf|A2 ef gfec|d2 =c2 B2||
K:G
A2|G6 AB|c6 cB|
A2 f2 f2 ef|gfga gedc|D2 B2 B2 AB|E2 c2 c2 cB|A2 f2 f2 ef|
gfga g2:|
<end>
<start>
